X:21088 
T:HUMORS OF KILKENNY, The 
B:DMI.0992
Z:Nordberg/Black
R:jig 
N:In "Miscellaneous" section of DMI.
%Q:1/4=160
M:6/8
L:1/8
K:G
c|BGG G2B|ded d2c|BGG GBd|e3g3|
GBd gfe|edc cBA|BGE EDE|c3 ed:|
z|BGE EDE|GED D2c|BGE EDE|c3 edc|
BGE EDE|GED D2c|BAG AGF|G3 G2:|

%%%

